src/actions/24/texture.svg

<svg xmlns="http://www.w3.org/2000/svg" viewBox="0 0 24 24">
    <path d="M3 3v16h16V3H3zm1 1h14v2H4V4zm0 3h14v2H4V7zm0 3h14v2H4v-2zm0 3h14v2H4v-2zm0 3h14v2H4v-2z" style="fill:currentColor;fill-opacity:1;stroke:none;color:#050505;opacity:.7" transform="translate(1 1)"/>
</svg>

<svg xmlns="http://www.w3.org/2000/svg" viewBox="0 0 24 24">
  <defs id="defs3051">
    <style type="text/css" id="current-color-scheme">
      .ColorScheme-Text {
        color:#363636;
      }
      </style>
  </defs><g transform="translate(1,1)">
 <path 
     style="fill:currentColor;fill-opacity:1;stroke:none" 
     d="M 3 3 L 3 4 L 3 6 L 3 7 L 3 9 L 3 10 L 3 12 L 3 13 L 3 15 L 3 16 L 3 18 L 3 19 L 18 19 L 19 19 L 19 18 L 19 16 L 19 15 L 19 13 L 19 12 L 19 10 L 19 9 L 19 7 L 19 6 L 19 4 L 19 3 L 18 3 L 3 3 z M 4 4 L 18 4 L 18 6 L 4 6 L 4 4 z M 4 7 L 18 7 L 18 9 L 4 9 L 4 7 z M 4 10 L 18 10 L 18 12 L 4 12 L 4 10 z M 4 13 L 18 13 L 18 15 L 4 15 L 4 13 z M 4 16 L 18 16 L 18 18 L 4 18 L 4 16 z "
	 class="ColorScheme-Text"
     />
</g></svg>
